packages/Snappmarket/src/TwitterIcon/index.svg

<svg
  xmlns="http://www.w3.org/2000/svg"
  width="32pt"
  height="25pt"
  viewBox="0 0 32 25"
  version="1.1"
  id="TwitterIcon"
>
  <g>
    <path d="M 32 3.417969 C 29.988281 3.507812 30.03125 3.5 29.804688 3.515625 L 30.996094 0.191406 C 30.996094 0.191406 27.273438 1.527344 26.332031 1.769531 C 23.867188 -0.308594 20.308594 -0.589844 17.535156 1.078125 C 15.355469 2.328125 14.191406 4.757812 14.609375 7.195312 C 10.472656 6.65625 6.703125 4.585938 4.089844 1.410156 L 3.199219 0.375 L 2.539062 1.558594 C 1.710938 3.023438 1.4375 4.726562 1.761719 6.371094 C 1.894531 7.023438 2.128906 7.65625 2.449219 8.246094 L 1.691406 7.957031 L 1.601562 9.195312 C 1.546875 10.585938 1.949219 11.957031 2.746094 13.113281 C 3.007812 13.5 3.308594 13.859375 3.640625 14.1875 L 3.25 14.128906 L 3.726562 15.546875 C 4.3125 17.335938 5.621094 18.820312 7.351562 19.644531 C 5.660156 20.34375 4.296875 20.792969 2.054688 21.511719 L 0 22.171875 L 1.894531 23.1875 C 3.707031 24.164062 5.664062 24.859375 7.695312 25.25 C 13.308594 26.109375 19.625 25.410156 23.875 21.671875 C 27.460938 18.519531 28.632812 14.039062 28.390625 9.375 C 28.34375 8.699219 28.542969 8.027344 28.945312 7.480469 C 29.742188 6.441406 32 3.421875 32 3.417969 Z M 27.449219 6.375 C 26.78125 7.265625 26.453125 8.359375 26.519531 9.460938 C 26.765625 14.167969 25.457031 17.8125 22.625 20.304688 C 19.316406 23.210938 13.980469 24.355469 7.988281 23.4375 C 6.910156 23.25 5.859375 22.945312 4.851562 22.527344 C 6.792969 21.882812 8.6875 21.121094 10.53125 20.25 L 13.808594 18.734375 L 10.191406 18.511719 C 8.542969 18.4375 7.03125 17.597656 6.128906 16.25 C 6.59375 16.222656 7.058594 16.148438 7.507812 16.027344 L 10.953125 15.089844 L 7.476562 14.257812 C 6.179688 13.964844 5.046875 13.195312 4.3125 12.109375 C 4.007812 11.65625 3.773438 11.15625 3.628906 10.632812 C 4.089844 10.742188 4.5625 10.816406 5.035156 10.851562 L 8.253906 11.164062 L 5.707031 9.222656 C 3.9375 7.957031 3.132812 5.773438 3.671875 3.699219 C 7.128906 7.171875 11.859375 9.160156 16.820312 9.222656 C 16.792969 8.699219 16.730469 8.183594 16.628906 7.671875 C 15.9375 5.765625 16.734375 3.652344 18.519531 2.636719 C 20.605469 1.386719 23.277344 1.601562 25.125 3.171875 C 25.535156 3.550781 26.113281 3.699219 26.660156 3.574219 C 27.089844 3.46875 27.511719 3.34375 27.929688 3.199219 L 27.121094 5.449219 L 28.160156 5.449219 Z M 27.449219 6.375 "/>
  </g>
</svg>

<svg xmlns="http://www.w3.org/2000/svg" viewBox="0 0 32 25">
  <path d="M32 3.418c-2.012.09-1.969.082-2.195.098L30.996.19s-3.723 1.336-4.664 1.579c-2.465-2.079-6.023-2.36-8.797-.692-2.18 1.25-3.344 3.68-2.926 6.117-4.136-.539-7.906-2.61-10.52-5.785L3.2.375l-.66 1.184a7.01 7.01 0 00-.777 4.812c.133.652.367 1.285.687 1.875l-.758-.289-.09 1.238a6.454 6.454 0 001.145 3.918c.262.387.563.746.895 1.075l-.391-.06.477 1.419a6.947 6.947 0 003.625 4.098c-1.692.699-3.055 1.148-5.297 1.867L0 22.172l1.895 1.015a20.32 20.32 0 005.8 2.063c5.614.86 11.93.16 16.18-3.578 3.586-3.152 4.758-7.633 4.516-12.297a2.867 2.867 0 01.554-1.895C29.742 6.441 32 3.422 32 3.418zm-4.55 2.957a4.675 4.675 0 00-.93 3.086c.246 4.707-1.063 8.351-3.895 10.844-3.309 2.906-8.645 4.05-14.637 3.133a14.804 14.804 0 01-3.136-.91 50.655 50.655 0 005.68-2.278l3.277-1.516-3.618-.222A5.16 5.16 0 016.13 16.25a6.86 6.86 0 001.379-.223l3.445-.937-3.476-.832a5.198 5.198 0 01-3.165-2.149 5.08 5.08 0 01-.683-1.476 9 9 0 001.406.219l3.219.312-2.547-1.941c-1.77-1.266-2.574-3.45-2.035-5.524C7.129 7.172 11.859 9.16 16.82 9.223c-.027-.524-.09-1.04-.191-1.551-.692-1.906.105-4.02 1.89-5.035a5.703 5.703 0 016.606.535c.41.379.988.527 1.535.402.43-.105.852-.23 1.27-.375l-.809 2.25h1.04zm0 0"/>
</svg>
